X:1117
L:1/16
M:2/4
K:C
 GG | G2EE E2cB | cBcd c2GG | G2EE E2d^c | d^cde d2GG | G2EE E2cB | cBcd e2ef | gagf efed | 
 c2e2c2 || ef | gag^f g2g=f | efed c2de | fgfe f2fe | ded^c d2ef | gag^f g2g=f | efed c2de | 
 fgfe dcBd | c2e2c2 ||

